!!!OTL: Das Wirtshaus am Rhein (247), S. 527f
!!!id: T0435
**kern
*clefG2
*k[f#c#]
*D:
{8f#
8d
8e
=1
4f#
8f#
8d
8f#
8e
=2
4d}
8r
=3
{8a
8a
8dd
=4
4cc#
4a
8b
8g#
=5
4a}
8r
=6
{8a
8dd
8a
=7
8a
8a
8dd
8b
8b}
=8
{8b
=9
8b
8b
16dd
16dd
8b
8a
8a
=10
8f#}
=11
{8a
8a
8a
16a
16a
8a
=12
*M2/4
4g
4a
=13
4f#}
8r
==
*-
!!!minrhy: 16
!!!meters: 3/4 2/4]  ZZ[5
!!!cut: Das Wirtshaus am Rhein (247), S. 527f
!!!reg: Luxemburg
!!!trd: Singendes Volk, Esch-Alzette, 1937 posth.
!!!rhy1: X_X_X_  X__X_X_X_X_  X__0   (x2)
!!!rhy2: X_X_X_  X__X__X_X_  X__0
!!!key: T0435  16  D 3/4 2/4]  ZZ[5
!!!mod: ACHTTONSKALA DUR ?]  AMBITUS[8
!!!kad: 15633
!!!akz: 31_75_5_63_43_
!!!fot: 'a__as"b__c__d__
!!!for: 'a__b__c__d__bw_
!!!fok: 'Sd_^__^a_\__\__
!! PHRAS[AUFTAKTIG]
!!!fkt: Berufslied
!!!bem: Rammeldingen, J.P. Gloden, 19.2.1934
!! THILL; Mathias
!! PR[30] 2K[0] 2G[7] 3K[7] 3G[0] 4A[7] 4Ü[0] 5A[3] 6K[0] 6G[0]
!! 7K[0] 7G[0] 8A[0] MEHR[0] SI[23] ABS[30] SR[7] SP[17]
!! ST[10] 2k[3] 2g[27] 3k[13] 3g[0] 4d[3] 4ü[0] 5d[0] 6k[0] 6g[0]
!! 7k[0] 7g[0] 8d[0] mehr[0] si[47] dm[-24] sr[30] sp[17]
!! 1F[82] 2F[18] 3F[0] 4F[0] LF[0] 2P[0] 3P[0] 4P[0] TRI[0] DF[2] AB[34]
!! TF[0] U3K[0] U3[0] U4[0] U4Ü[0] U5[0] U6K[0] U6[0] U7K[0] U7[0]
!! N1[13] N2K[0] N2[19] N3K[0] N3[13] N4[26] N4Ü[0] N5[23] N6K[0] N6[6]
!!!n7k: 0] N7[0] O1[0] O2K[0] O2[0] O3K[0] O3[0] HÖ[0
